X: 7
I: linebreak $
T: La Spagna
T: for couples
C: Anonymous, C. 1500
N: Can be played with Casulle la Novele
K: D minor
M: 6/4
L: 1/8
d3cA2 B4AG | F2B4 A2B3A/G/ | G2E2F2 G4^F2 | G4z2 G3ABc | d4z2 D3EFG | ABA4 G4^F2 | 
G8z2_E2 | D2_E2G2 d3cBA | G2d3c BAB4 | A2c4 BAG4 | FEDCB,2 A,G,A,4 | B,2B4 A2B3c | 
AGFED2 d4cB | c3Bc2 d4^c2 | d2cBA2 B4AG | A2d4 cBc4 | B2B,3C D2_E2D2 | B,3CD2 G,2DEFG | 
ABc4 B4A2 | B2d4 c4B2 | c4z2 c4BA | G2A4 B2c4 | B2B,3A, G,F,B,3C | D2_E2E2 D4C2 | 
D4z2 D4CB, | A,2D4 CB,A,4 | G,A,B,CB,2 B4AG | A2G2A2 B4A2 | B2d3c BAB4 | G4z2 G4FE | 
FDd3c B4A2- | AGFEF2 G4F2 | G2B3A G4FE | F2A3G F4_ED | _EDCB,A,2 B,4A,2 | B,4z2 B4AG | 
A3Bc2 d2c2d2- | d2cBc2 d4^c2 | d4z2 B4AG | A2G2A2 B4A2 | B4z2 G4FE | F2A4 G4^F2 | 
G4z2 G4FE | F2A4 G4^F2 | G12 |] 

